icons/Finance/exchange-dollar-line.svg

<svg viewBox="0 0 24 24" xmlns="http://www.w3.org/2000/svg"><path d="M19.3788 15.1057C20.9258 11.442 19.5373 7.11425 16.0042 5.07444C13.4511 3.6004 10.4232 3.69359 8.03452 5.05554L7.04216 3.31873C10.028 1.61633 13.8128 1.49984 17.0042 3.34239C21.4949 5.93507 23.2139 11.4848 21.1217 16.1119L22.4635 16.8866L18.2984 19.1007L18.1334 14.3866L19.3788 15.1057ZM4.62961 8.89962C3.08263 12.5633 4.47116 16.891 8.00421 18.9308C10.5573 20.4049 13.5851 20.3117 15.9737 18.9499L16.9661 20.6866C13.9803 22.389 10.1956 22.5054 7.00421 20.6629C2.51357 18.0702 0.794565 12.5205 2.88672 7.89336L1.54492 7.11867L5.70999 4.90457L5.87505 9.61867L4.62961 8.89962ZM8.50421 14.0026H14.0042C14.2804 14.0026 14.5042 13.7788 14.5042 13.5026C14.5042 13.2265 14.2804 13.0026 14.0042 13.0026H10.0042C8.6235 13.0026 7.50421 11.8834 7.50421 10.5026C7.50421 9.12193 8.6235 8.00265 10.0042 8.00265H11.0042V7.00265H13.0042V8.00265H15.5042V10.0026H10.0042C9.72807 10.0026 9.50421 10.2265 9.50421 10.5026C9.50421 10.7788 9.72807 11.0026 10.0042 11.0026H14.0042C15.3849 11.0026 16.5042 12.1219 16.5042 13.5026C16.5042 14.8834 15.3849 16.0026 14.0042 16.0026H13.0042V17.0026H11.0042V16.0026H8.50421V14.0026Z"/></svg>

<svg xmlns="http://www.w3.org/2000/svg" viewBox="0 0 24 24">
    <g>
        <path fill="none" d="M0 0h24v24H0z"/>
        <path d="M19.375 15.103A8.001 8.001 0 0 0 8.03 5.053l-.992-1.737A9.996 9.996 0 0 1 17 3.34c4.49 2.592 6.21 8.142 4.117 12.77l1.342.774-4.165 2.214-.165-4.714 1.246.719zM4.625 8.897a8.001 8.001 0 0 0 11.345 10.05l.992 1.737A9.996 9.996 0 0 1 7 20.66C2.51 18.068.79 12.518 2.883 7.89L1.54 7.117l4.165-2.214.165 4.714-1.246-.719zM8.5 14H14a.5.5 0 1 0 0-1h-4a2.5 2.5 0 1 1 0-5h1V7h2v1h2.5v2H10a.5.5 0 1 0 0 1h4a2.5 2.5 0 1 1 0 5h-1v1h-2v-1H8.5v-2z"/>
    </g>
</svg>
